!!!!SEGMENT: pl-kc--40102-iii-1-saf--001-011_zielenski-mikolaj--offertoria-totius-anni-commune-plutimorum-martyrum-laetamini-in-domino.krn
!!!cenid: 16xx:1489
!!!COM: Zieleński, Mikołaj
!!!COM-rismid: pe30013481
!!!CDT:
!!!CNT: Polish
!!!OTL: Offertoria totius anni
!!!OMV: 011
!!!PDT: 1611
!!!AGN:
!!!SMS-siglum: PL-Kc
!!!SMS-shelfmark: 40102 III/1 Saf.
!!!SMS-shelfwork: 001-011 W
!!!SMS-variant:
!!!SMS-altvar:
!!!NIFC-rismid: 990069886
!!!URL-scan: https://cyfrowe.mnk.pl/dlibra/publication/24235/edition/23926/content?ref=desc
!!!ONB-nifc: UWAGA: str. 12. Uwaga: W xml metrum 2/1 do źródłowego C| i odpowiednio 3/1 do 3/2
**kern	**kern	**kern	**kern
*group1	*group1	*group1	*group1
*part4	*part3	*part2	*part1
*staff4	*staff3	*staff2	*staff1
*I""Organo	*I""Organo	*I""Organo	*I""Organo
*I''org	*I''org	*I''org	*I''org
*Iorg	*Iorg	*Iorg	*Iorg
*ICklav	*ICklav	*ICklav	*ICklav
*clefF5	*clefC3	*clefF3	*clefG2
*k[]	*k[]	*k[]	*k[]
*d:	*d:	*d:	*d:
*	*	*M2/1	*M2/1
*	*	*met(C|)	*met(C|)
=1	=1	=1	=1
!LO:TX:t=P:problem:brak oznaczenia menzuralnego	!LO:TX:t=P:problem:brak oznaczenia menzuralnego	!LO:TX:a:t=Laetamini in Domino.	!LO:TX:a:t=Commune plutimorum Martyrum. A 8.
00r	00r	1r	1a
.	.	1D	2.dd\
.	.	.	4dd\
=2-	=2-	=2-	=2-
.	.	2.A\	2dd\
.	.	.	4cc#X\
.	.	4A\	4b/
.	.	2A\	2cc#\
.	.	2F#X/	2dd\
=3	=3	=3	=3
00r	00r	2.G\	2.b-X/
.	.	4G\	4b-/
.	.	2.D/	2a/
.	.	.	2dd\
.	.	4d\	.
=4-	=4-	=4-	=4-
.	.	4c#X\	4ee\
.	.	4d\	4ff\
.	.	2A\	2ee\
.	.	4D/	4dd\
.	.	4D/	4dd\
.	.	4C#X/	4ee\
.	.	4D/	4ff\
=5	=5	=5	=5
00r	00r	2A\	2ee\
.	.	4F#X/	4dd\
.	.	4F#/	4dd\
.	.	2G\	2dd\
.	.	2E/	2.gg\
=6-	=6-	=6-	=6-
.	.	2A\	.
.	.	.	4gg\
.	.	2D/	2ff\
.	.	1A	1ee
=7	=7	=7	=7
1r	2r	1D	1dd
.	2A/	.	.
1DD	2.d\	1r	1r
.	4d\	.	.
=8-	=8-	=8-	=8-
2.AA/	2d\	0r	0r
.	4c#X/	.	.
4AA/	4B/	.	.
2AA/	2c#/	.	.
2FF#X/	2d\	.	.
=9	=9	=9	=9
2GG/	2.B-X/	00r	00r
2GG/	.	.	.
.	4B-/	.	.
2.DD/	2A/	.	.
.	2d\	.	.
4D\	.	.	.
=10-	=10-	=10-	=10-
4C#X\	4e\	.	.
4D\	4f\	.	.
2AA/	2e\	.	.
4DD/	4d\	.	.
4DD/	4d\	.	.
4CC#X/	4e\	.	.
4DD/	4f\	.	.
=11	=11	=11	=11
2AA/	2e\	00r	0r
4FF#X/	4d\	.	.
4FF#/	4d\	.	.
2GG/	2d\	.	.
2EE/	2.g\	.	.
=12-	=12-	=12-	=12-
2AA/	.	.	1r
.	4g\	.	.
2DD/	2f\	.	.
1AA	1e	.	2r
.	.	.	2a/
=13	=13	=13	=13
1DD	1d	2r	2.dd\
.	.	2D/	.
.	.	.	4dd\
0r	0r	4.A\	2cc\
.	.	8A\	.
.	.	4A\	2ee\
.	.	4A\	.
=14-	=14-	=14-	=14-
.	.	2E/	2ee\
.	.	2E/	2b/
2r	2r	2.A\	2cc#X\
2AA/	2A/	.	2ee\
.	.	4A\	.
=15	=15	=15	=15
4.DD/	4.d\	4.F/	4.ff\
8DD/	8d\	8F/	8ff\
4DD/	4d\	4F/	4ff\
4DD/	4d\	4D/	4ff\
2GG/	2d\	2D/	2dd\
2GG/	2d\	2G\	2dd\
=16-	=16-	=16-	=16-
1CC	1g	2E/	2.ee\
.	.	2c\	.
.	.	.	4ee\
1r	1r	4.F/	4.ff\
.	.	8C/	8ee\
.	.	4D/	4dd\
.	.	4B\	4dd\
=17	=17	=17	=17
4r	4r	2A\	2cc#X\
4AA/	4a\	.	.
4.D\	4.f\	2D/	2dd\
8C\	8e\	.	.
4BB-X/	4d\	2r	2r
4GG/	4d\	.	.
2AA/	2c#X/	4r	4r
.	.	4A\	4ee\
=18-	=18-	=18-	=18-
2DD/	2d\	4.d\	4.ff\
.	.	8c\	8ee\
2r	2r	4B-X\	4dd\
.	.	4G\	4dd\
4r	4r	2A\	2cc#X\
4AA/	4.a\	.	.
4.D\	.	2D/	2dd\
.	4f\	.	.
8C\	8e\	.	.
=19	=19	=19	=19
4BB-X/	4d\	2r	2r
4GG/	4d\	.	.
2AA/	2c#X/	4r	4r
.	.	4A\	4ee\
!	!LO:TX:t=P:problem:brak dźwięku w źródle	!	!
2DD/	2d\yy	4.d\	4.ff\
.	.	8c\	8ee\
4r	4r	4B\	4dd\
4GG/	4g\	4G\	4dd\
=20-	=20-	=20-	=20-
4.C\	2.e\	2G\	2ee\
8BBny/	.	.	.
2AA/	.	4C/	4cc\
.	4e\	4C/	4ee\
1DD	2a\	2F/	2.ff\
.	4f\	2D/	.
.	4f\	.	4ee\
*custos:GG	*custos:g	*custos:D	*custos:dd
!!LO:LB:g=original
=21	=21	=21	=21
2GG/	4g\	2D/	2dd\
.	4f\	.	.
!LO:N:vis=2.	!	!	!
2CC/	4e\	2G\	1ee
.	4d\	.	.
*	*	*lig	*
2.FF/	4c/	1A	.
.	4A/	.	.
.	2.a\	.	2.dd\
4GG/	.	.	.
=22-	=22-	=22-	=22-
1AA	.	1E	.
.	4e\	.	8cc\
.	.	.	8b\
.	2a\	.	2cc\
*	*	*Xlig	*
1DD	1f#X	1A	1dd
=23	=23	=23	=23
*M3/2	*M3/2	*M3/2	*M3/2
1D	1a	00.r	00.r
1D	1a	.	.
1BB	1g	.	.
=24-	=24-	=24-	=24-
1.C	1.g	.	.
2C\	2g\	.	.
1FF	1f	.	.
=25-	=25-	=25-	=25-
1C	1e	00.r	00.r
1C	1e	.	.
1GG	1d	.	.
=26-	=26-	=26-	=26-
1.AA	1.c#X	.	.
2AA/	2c#/	.	.
1D	1d	.	.
=27	=27	=27	=27
0C	0e	00.r	00.r
1AA	1f	.	.
=28-	=28-	=28-	=28-
0.BB-X	1.d	.	.
.	2e\	.	.
.	2f\	.	.
.	2d\	.	.
=29-	=29-	=29-	=29-
1GG	1.g	00.r	00.r
0D	.	.	.
.	4f\	.	.
.	4e#X\	.	.
.	1f	.	.
=30-	=30-	=30-	=30-
0GG	0g	.	.
1GG	1g	.	.
=31	=31	=31	=31
1.C	0e	00.r	00.r
2BB/	.	.	.
1AA	1a	.	.
=32-	=32-	=32-	=32-
*	*col	*	*
1FF	1a	.	.
0C	0g	.	.
=33-	=33-	=33-	=33-
0.FF	0.f	0.r	0.r
*	*Xcol	*	*
=34-	=34-	=34-	=34-
0.r	0.r	1F	1cc
.	.	1F	1cc
.	.	1G	1b
=35	=35	=35	=35
00.r	00.r	1.D	1.a
.	.	2D/	2a/
.	.	1G	1b
=36-	=36-	=36-	=36-
.	.	1G	1dd
.	.	1G	1dd
.	.	1C	1cc
=37	=37	=37	=37
00.r	00.r	1.G	1.b
.	.	2G\	2b/
.	.	1D	1a
=38-	=38-	=38-	=38-
.	.	0G	0b
.	.	1C	1cc
=39	=39	=39	=39
00.r	00.r	0.F	1.a
.	.	.	2b/
.	.	.	2cc\
.	.	.	2a/
=40-	=40-	=40-	=40-
.	.	1D	0dd
*	*	*lig	*
.	.	1A	.
.	.	1AA	1cc#X
*	*	*Xlig	*
=41-	=41-	=41-	=41-
00.r	00.r	0D	0dd
.	.	1G	1b
=42-	=42-	=42-	=42-
.	.	1.C	1.ccny
.	.	2D/	2b/
.	.	1F	2a/
.	.	.	2g/
=43	=43	=43	=43
00.r	00.r	1G	1.g
.	.	0D	.
.	.	.	4f#X/
.	.	.	4e/
.	.	.	1f#
=44-	=44-	=44-	=44-
.	.	0.G	0.g
=45-	=45-	=45-	=45-
1GG	1d	00.r	00.r
1GG	1d	.	.
1C	1c	.	.
=46-	=46-	=46-	=46-
1.GG	1.B	.	.
2GG/	2B/	.	.
1DD	1A	.	.
=47	=47	=47	=47
00.r	00.r	1D	1dd
.	.	1D	1dd
.	.	1A	1cc
=48-	=48-	=48-	=48-
.	.	1.E	1.b
.	.	2E/	2b/
.	.	1A	1cc#X
=49-	=49-	=49-	=49-
1AA	1A	1E	1ee
1AA	1A	1E	1ee
1DD	1A	1D	1ff#X
=50-	=50-	=50-	=50-
1.GG	1.B	1.D	1.gg
2GG/	2B/	2D/	2gg\
1CC	1e	1E	1ee
=51	=51	=51	=51
0FF	0c	0C	0ff
1FF	1c	1F	1cc
=52-	=52-	=52-	=52-
0CC	0c	0E	0ee
1GG	1G	1G	1dd
=53-	=53-	=53-	=53-
1.DD	1.d	0.F	0.ff
2EE/	4c/	.	.
.	4B/	.	.
1FF	1A	.	.
=54-	=54-	=54-	=54-
1AA	1A	1C	0ee
0DD	0f	0D	.
.	.	.	1dd
*custos:AA	*custos:e	*custos:E	*custos:ee
!!LO:LB:g=original
=55	=55	=55	=55
*M2/1	*M2/1	*M2/1	*M2/1
*met(C|)	*met(C|)	*met(C|)	*met(C|)
1AA	1e	2.E/	2ee\
.	.	.	2ee\
.	.	4A\	.
2r	2r	4c#X\	4ee\
.	.	4d\	4dd\
4r	4r	2A\	2cc#X\
4AA/	4e\	.	.
=56-	=56-	=56-	=56-
4C#X\	4e\	2r	2r
4D\	4d\	.	.
2AA/	2c#X/	4r	4r
.	.	4A\	4ee\
2r	2r	4c#y\	4ee\
.	.	4d\	4dd\
4r	4r	2A\	2cc#X\
4AA/	4e\	.	.
=57	=57	=57	=57
4C#X\	4e\	2r	2r
4D\	4d\	.	.
4AA/	4c#X/	4r	4r
4AA/	4e\	4E/	4ee\
4C#\	4c#/	2E/	2ee\
4AA/	4c#/	.	.
4D\	2f\	2F/	2dd\
4DD/	.	.	.
=58-	=58-	=58-	=58-
2AA/	1r	2A\	4cc\
.	.	.	2ee\
2EE/	.	1G	.
.	.	.	2gg\
!	!LO:TX:t=P:problem:brak pauzy 2r	!	!
2GG/	2ryy	.	.
.	.	.	2dd\
2DD/	2f\	2A\	.
.	.	.	[<4ff\
=59	=59	=59	=59
2FF/	2c/	2F/	4ff\]
.	.	.	2cc\
2CC/	2c/	2.G\	.
.	.	.	4ee\
2GG/	2G/	.	4b/
.	.	4G\	2dd\
2DD/	2d\	4F/	.
.	.	8E/	2a/
.	.	8D/	.
=60-	=60-	=60-	=60-
2.AA/	2.A/	4C/	.
.	.	4D/	4a/
.	.	2E/	2ee\
4GG/	4B/	.	.
2FF/	4c/	2A\	2a/
.	2f\	.	.
2DD/	.	[y2F/	[y2ff\
.	8e\	.	.
.	8d\	.	.
=61	=61	=61	=61
!	!	!LO:N:xstem:cue	!LO:N:xstem:cue
2.FF/	2a\	4F\]	4ff\]
.	.	4G\	4ee\
.	2A/	2A\	2.dd\
4GG/	.	.	.
2AA/	2e\	2E/	.
.	.	.	8cc#X\
.	.	.	8b\
2AA/	2A/	2A\	2cc#\
=62-	=62-	=62-	=62-
1DD	1d	1F#X	1dd
=63	=63	=63	=63
*M3/2	*M3/2	*M3/2	*M3/2
1GG	1d	0.r	0.r
1GG	1d	.	.
1C	1c	.	.
=64	=64	=64	=64
1.GG	1.B	0.r	0.r
2GG/	2B/	.	.
1DD	1A	.	.
=65-	=65-	=65-	=65-
0.r	0.r	1D	1dd
.	.	1D	1dd
.	.	1A	1cc
=66-	=66-	=66-	=66-
0.r	0.r	1.E	1.b
.	.	2E/	2b/
.	.	1A	1cc#X
=67-	=67-	=67-	=67-
1AA	1A	1E	1ee
1AA	1A	1E	1ee
1DD	1A	1D	1ff#X
=68	=68	=68	=68
1.GG	1.B	1.D	1.gg
2GG/	2B/	2D/	2gg\
1CC	1e	1E	1ee
=69-	=69-	=69-	=69-
0FF	0c	0C	0ff
1FF	1c	1F	1cc
=70-	=70-	=70-	=70-
0CC	0c	0E	0ee
1GG	1G	1G	1dd
=71-	=71-	=71-	=71-
1.DD	1.d	0.F	0.ff
2EE/	4c/	.	.
.	4B/	.	.
1FF	1A	.	.
=72	=72	=72	=72
1AA	1A	1C	0ee
0DD	0f	0D	.
.	.	.	1dd
=73-	=73-	=73-	=73-
*M2/1	*M2/1	*M2/1	*M2/1
*met(C|)	*met(C|)	*met(C|)	*met(C|)
1AA	1e	2.E/	2ee\
.	.	.	2ee\
.	.	4A\	.
2r	2r	4c#X\	4ee\
.	.	4d\	4dd\
4r	4r	2A\	2cc#X\
4AA/	4e\	.	.
=74-	=74-	=74-	=74-
4C#X\	4e\	2r	2r
4D\	4d\	.	.
2AA/	2c#X/	4r	4r
.	.	4A\	4ee\
=	=	=	=
2r	2r	4c#y\	4ee\
.	.	4d\	4dd\
4r	4r	2A\	2cc#X\
4AA/	4e\	.	.
=75-	=75-	=75-	=75-
4C#X\	4e\	2r	2r
4D\	4d\	.	.
4AA/	4c#X/	4r	4r
4AA/	4e\	4E/	4ee\
4C#\	4c#/	2E/	2ee\
4AA/	4c#/	.	.
4D\	2f\	2F/	2dd\
4DD/	.	.	.
=76-	=76-	=76-	=76-
2AA/	1r	2A\	4cc#y\
.	.	.	2ee\
2EE/	.	[<2G\	.
.	.	.	[<4gg\
=	=	=	=
2GG/	2r	2G\]	4gg\]
.	.	.	2dd\
2DD/	2f\	2A\	.
.	.	.	2ff\
=77-	=77-	=77-	=77-
2FF/	2c/	2F/	.
.	.	.	2cc\
2CC/	2c/	2.G\	.
.	.	.	4ee\
2GG/	2G/	.	4b/
.	.	4G\	2cc\
2DD/	2d\	4F/	.
.	.	8E/	2a/
.	.	8D/	.
=78-	=78-	=78-	=78-
2.AA/	2.A/	4C/	.
.	.	4D/	4a/
!	!	!LO:SIC:v:t=błędna wysokość custos	!
.	.	2E/	2ee\
4GG/	4B/	.	.
*custos:FF	*custos:c	*custos:G	*custos:a
!!LO:LB:g=original
=	=	=	=
2FF/	4c/	2A\	2a/
.	2f\	.	.
2DD/	.	2.F/	2.ff\
.	8e\	.	.
.	8d\	.	.
=79	=79	=79	=79
2.FF/	2a\	.	.
.	.	4G\	4ee\
.	2A/	2A\	2.dd\
4GG/	.	.	.
2AA/	2e\	2E/	.
.	.	.	8cc#X\
.	.	.	8b\
2AA/	2A/	2A\	2cc#\
=80-	=80-	=80-	=80-
2DD/	2d\	2F/	[y1dd
[y2D\	[<2f\	[<2F/	.
=	=	=	=
!LO:N:xstem:cue	!	!	!LO:N:xstem:cue:vis=4
4D\]	2f\]	2F/]	2dd\]
4C\	.	.	.
4BB-X/	2d\	1G	1dd
4AA/	.	.	.
=81-	=81-	=81-	=81-
2GG/	2g\	.	.
2DD/	2f#X\	2A\	2dd\
0.GG	1g	0G	4dd\
.	.	.	4cc\
.	.	.	4b-X/
.	.	.	4a/
=82-	=82-	=82-	=82-
.	1.d	.	4b-X/
.	.	.	4g/
.	.	.	4b-/
.	.	.	4cc/
.	.	[1Al	1dd
.	1g	.	.
=83-	=83-	=83-	=83-
0DDl	.	0A]	0ddl
.	4f#X\	.	.
.	4e\	.	.
.	1f#l	.	.
==	==	==	==
*-	*-	*-	*-
!!!system-decoration: *
!!!RDF**kern: > = above
!!!RDF**kern: < = below
!!!RDF**kern: l = terminal long
!!!ENC: Filip Voros
!!!END: 2021-12-10
!!!ENC: Andrzej Kubiczek
!!!END: 2021-12-19
